icons/clipboard.svg

<svg width="24" height="24" viewBox="0 0 24 24" fill="none" xmlns="http://www.w3.org/2000/svg">
<path fill-rule="evenodd" clip-rule="evenodd" d="M7 3C7 2.44772 7.44772 2 8 2H16C16.5523 2 17 2.44772 17 3V4H20C20.5523 4 21 4.44772 21 5V21C21 21.5523 20.5523 22 20 22H4C3.44772 22 3 21.5523 3 21V5C3 4.44772 3.44772 4 4 4H7V3ZM7 6H5V20H19V6H17V7C17 7.55228 16.5523 8 16 8H8C7.44772 8 7 7.55228 7 7V6ZM15 4H9V6H15V4Z" fill="black"/>
</svg>

<svg
  width="24"
  height="24"
  viewBox="0 0 24 24"
  xmlns="http://www.w3.org/2000/svg"
>
  <path
    fill-rule="evenodd"
    clip-rule="evenodd"
    d="M7 3a1 1 0 0 1 1-1h8a1 1 0 0 1 1 1v1h3a1 1 0 0 1 1 1v16a1 1 0 0 1-1 1H4a1 1 0 0 1-1-1V5a1 1 0 0 1 1-1h3V3zm0 3H5v14h14V6h-2v1a1 1 0 0 1-1 1H8a1 1 0 0 1-1-1V6zm8-2H9v2h6V4z"
  />
</svg>
